assets/images/ico_tel2.svg

<svg width="19" height="19" viewBox="0 0 19 19" fill="none" xmlns="http://www.w3.org/2000/svg">
<path d="M15.302 11.2821C15.302 11.2821 15.3012 11.2813 15.3006 11.2807C14.5773 10.5625 13.603 10.5625 12.8783 11.2807C12.4463 11.7076 12.0136 12.1359 11.5688 12.5918C11.4629 12.5348 11.3546 12.4815 11.2457 12.4287C11.082 12.3488 10.9182 12.2694 10.7654 12.1741C9.61124 11.4495 8.55103 10.483 7.52489 9.22038C7.00522 8.58002 6.649 8.01606 6.39911 7.42689C6.83607 7.00293 7.26456 6.57011 7.69168 6.13828C8.44608 5.37819 8.4445 4.43143 7.68774 3.66779C7.34156 3.31729 6.99045 2.96619 6.64092 2.62139L6.28332 2.26301C6.04426 2.02297 5.80481 1.78195 5.55965 1.53974C4.82022 0.81943 3.86851 0.820021 3.13479 1.54191C2.96072 1.71421 2.78802 1.88867 2.61512 2.06255C2.34731 2.3337 2.0797 2.60406 1.80717 2.86517C1.33122 3.31867 1.064 3.89287 1.01319 4.57203C0.951163 5.43234 1.10614 6.30408 1.51494 7.39735C2.14567 9.08845 3.10683 10.6915 4.45355 12.2982C6.12618 14.2935 8.15188 15.8779 10.4747 17.0077C11.736 17.6229 12.8192 17.9366 13.885 17.9935C13.96 17.9978 14.0334 18 14.1057 18C14.992 18 15.6907 17.7007 16.236 17.0899C16.4906 16.8065 16.7661 16.5397 17.0416 16.2729C17.1749 16.1431 17.3084 16.0133 17.4411 15.8812C18.1831 15.1319 18.1868 14.1679 17.449 13.4237L15.302 11.2821ZM16.9173 15.36C16.7881 15.4891 16.6578 15.616 16.5272 15.743C16.2395 16.0214 15.9524 16.3004 15.6856 16.5976C15.2486 17.0879 14.6854 17.2927 13.9245 17.2566C12.961 17.2047 11.9674 16.9148 10.7977 16.3443C8.56915 15.2597 6.62497 13.739 5.01969 11.8236C3.72771 10.2825 2.80751 8.75015 2.20652 7.1392C1.83651 6.1499 1.69551 5.37465 1.74967 4.62618C1.78708 4.12936 1.97278 3.72766 2.31758 3.39881C2.59523 3.13278 2.86777 2.85789 3.14031 2.5824C3.31084 2.4101 3.48176 2.23702 3.65347 2.06747C3.87658 1.84831 4.11131 1.73863 4.34682 1.73863C4.58234 1.73863 4.81805 1.84831 5.04234 2.06668C5.28455 2.30613 5.52262 2.54479 5.76031 2.78345L6.12086 3.14479C6.4698 3.48939 6.81815 3.83773 7.16296 4.18686C7.63536 4.66359 7.63713 5.14524 7.16689 5.61823C6.73308 6.05735 6.29868 6.49647 5.85542 6.92495C5.63467 7.13762 5.58465 7.38435 5.70359 7.68209C5.97357 8.3325 6.36996 8.96932 6.95146 9.68608C8.02999 11.0123 9.14868 12.0311 10.3743 12.8007C10.5496 12.9096 10.7349 13.0011 10.9209 13.0919C11.0363 13.1482 11.1509 13.2044 11.2636 13.2658C11.4684 13.3776 11.7742 13.4454 12.0757 13.1317C12.5099 12.6839 12.9539 12.2448 13.3976 11.8055C13.8375 11.3685 14.3408 11.3691 14.7807 11.8047L16.9254 13.9449C17.3753 14.3988 17.3724 14.9014 16.9173 15.36Z" fill="#023869" stroke="#023869"/>
</svg>

<svg width="19" height="19" fill="none" xmlns="http://www.w3.org/2000/svg"><path d="M15.302 11.282l-.001-.001c-.724-.719-1.698-.719-2.423 0-.432.427-.864.855-1.31 1.31a8.56 8.56 0 00-.322-.162 5.22 5.22 0 01-.48-.255C9.61 11.45 8.55 10.483 7.524 9.22c-.52-.64-.876-1.204-1.126-1.793.437-.424.866-.857 1.293-1.289.754-.76.752-1.707-.004-2.47-.346-.35-.698-.702-1.047-1.047l-.358-.358c-.239-.24-.478-.481-.723-.723-.74-.72-1.691-.72-2.425.002-.174.172-.347.347-.52.52a38.19 38.19 0 01-.808.803 2.548 2.548 0 00-.794 1.707c-.062.86.093 1.732.502 2.825.63 1.691 1.592 3.294 2.939 4.901a18.2 18.2 0 006.02 4.71c1.262.615 2.345.929 3.411.986.075.004.148.006.22.006.887 0 1.586-.3 2.131-.91.255-.284.53-.55.806-.817l.4-.392c.741-.75.745-1.713.007-2.457l-2.147-2.142zm1.615 4.078c-.129.13-.26.256-.39.383-.288.278-.575.557-.841.855-.437.49-1 .695-1.761.659-.964-.052-1.958-.342-3.127-.913a17.472 17.472 0 01-5.778-4.52C3.728 10.283 2.808 8.75 2.207 7.139c-.37-.99-.511-1.764-.457-2.513A1.81 1.81 0 012.318 3.4c.277-.266.55-.541.822-.817.17-.172.342-.345.513-.515.224-.219.458-.328.694-.328.235 0 .471.11.695.328.243.24.48.478.718.716l.36.362c.35.344.698.693 1.043 1.042.472.477.474.958.004 1.431-.434.44-.868.878-1.312 1.307-.22.213-.27.46-.151.757.27.65.666 1.287 1.247 2.004 1.079 1.326 2.198 2.345 3.423 3.115.176.109.36.2.547.29.115.057.23.113.343.175.204.112.51.18.812-.134.434-.448.878-.887 1.322-1.326.44-.438.943-.437 1.383-.001l2.144 2.14c.45.454.447.956-.008 1.415z" fill="#023869" stroke="#023869"/></svg>
